X: 532
T:Hughie Travers' No. 2
R:Reel
M:4/4
L:1/8
N:Posted to the woodenflute mailing list June 2002
Z:Lesl
K:G
A2eA BAeA|AdBG AGEG|A2eA (3B^cd ea|gedB GBdB|\
A2eA BAeA|AdBG AGED|+cC+dcA (3BAG dB|GBAG EDED||\
Bded gedB|GBAB GEDd|Bded gfgb|abaf (3gfg ed|\
Bdea gedB|GBAB GEDB|cdcA (3BAG dB|GBAG EDEG||
<end>
<start>
